packages/components/src/components/icon/cashier/ic-cashier-pay-livre-light.svg

<svg width="32" height="11" viewBox="0 0 32 11" fill="none" xmlns="http://www.w3.org/2000/svg">
<path fill-rule="evenodd" clip-rule="evenodd" d="M4.23462 8.05878C4.23462 7.92446 4.23892 7.77627 4.24035 7.64147C4.23749 7.63716 3.41672 7.93115 3.00992 8.07551L1.98216 8.44072C1.7159 8.53537 1.44821 8.62524 1.18529 8.72658C0.948191 8.81741 0.825338 8.97037 0.85163 9.23616C0.86119 9.3375 0.974482 9.57364 0.986911 9.59085C1.00125 9.59946 1.01511 9.60997 1.02993 9.61762C1.19915 9.69888 1.37507 9.76437 1.55146 9.82795C1.89659 9.95463 2.24077 10.0827 2.5883 10.2008C2.86077 10.2931 3.13325 10.3872 3.41098 10.4623C3.50945 10.4891 3.60362 10.511 3.7064 10.4934C3.92581 10.4551 4.08069 10.3414 4.16291 10.131C4.21789 9.99096 4.2394 9.84468 4.24035 9.69697C4.24131 9.15107 4.23653 8.60516 4.23462 8.05878Z" fill="#0AD0DA"/>
<path fill-rule="evenodd" clip-rule="evenodd" d="M6.95703 4.04124C6.94986 3.09618 6.95464 2.1516 6.95225 1.20655C6.95129 1.05836 6.92691 0.911605 6.84039 0.784928C6.80167 0.728043 6.68168 0.617619 6.67117 0.609493C6.55979 0.52536 6.42929 0.499069 6.29592 0.500025C6.16303 0.501459 6.03396 0.536833 5.90872 0.582245C5.5894 0.696015 5.27103 0.812654 4.95171 0.926424C4.58602 1.05645 4.2189 1.1836 3.85273 1.31315C3.36036 1.48763 2.86752 1.66211 2.37515 1.83802C2.01998 1.9647 1.66528 2.09185 1.31394 2.22809C1.29195 2.23621 1.12129 2.30218 1.02425 2.35237C0.996048 2.36719 0.974537 2.38058 0.964021 2.39062C0.643743 2.63154 0.77042 3.0589 0.912394 3.1698C1.07683 3.29886 1.35266 3.31321 1.54434 3.38347C1.77858 3.47048 2.01376 3.55556 2.24848 3.64065C2.63137 3.77928 3.01475 3.91552 3.39621 4.05701C3.5205 4.10338 3.64144 4.15549 3.7533 4.22576C3.79059 4.24966 3.82692 4.27451 3.86181 4.30224C4.02434 4.43322 4.12473 4.60244 4.17587 4.80369C4.18161 4.8252 4.18878 4.84671 4.195 4.8687C4.19786 4.86966 4.20073 4.88543 4.20456 4.90981L4.23133 5.16555L4.23611 5.19519C4.23515 5.35485 4.23419 5.51404 4.23419 5.67322V5.7889L4.23467 7.527C4.23467 7.55186 4.23706 7.57624 4.2385 7.60062L4.23133 7.6422C4.23372 7.64698 4.27674 7.63025 4.29825 7.62404C4.58076 7.53752 4.86041 7.44239 5.1391 7.34392C5.53538 7.2029 5.93118 7.06188 6.31408 6.88692C6.46227 6.81952 6.6138 6.75451 6.71276 6.61445C6.74622 6.56713 6.8227 6.43615 6.83178 6.41989C6.93982 6.22247 6.95703 6.00497 6.96229 5.78651C6.96802 5.55228 6.96707 5.31709 6.96563 5.08238L6.95703 4.04124Z" fill="#9A6BFC"/>
<path fill-rule="evenodd" clip-rule="evenodd" d="M4.23462 5.78884V5.67316L4.23557 5.19609L4.23271 5.16645C4.23175 5.16645 4.21358 4.99532 4.2045 4.91023C4.20068 4.88585 4.19781 4.8696 4.19494 4.86912C4.18873 4.84713 4.18156 4.8261 4.17582 4.80411C4.12515 4.60334 4.02429 4.43316 3.86176 4.30314C3.82686 4.27541 3.79053 4.2496 3.75325 4.22665C3.64139 4.15638 3.51997 4.1038 3.39616 4.05791C3.0147 3.91594 2.63132 3.78018 2.2489 3.64107C2.01371 3.55598 1.77852 3.47089 1.54429 3.38437C1.35308 3.31362 1.34161 3.3447 0.992169 3.12289C0.643211 2.90109 0.865971 2.4876 0.963966 2.39151C0.974482 2.381 0.995994 2.36761 1.0242 2.35327H1.02276C0.747898 2.45796 0.558122 2.6463 0.462039 2.92642C0.397027 3.11524 0.37695 3.31123 0.375994 3.50866C0.37456 4.1516 0.375516 4.79503 0.375516 5.43845C0.375516 6.43848 0.374082 7.43803 0.375994 8.43806C0.37695 8.70145 0.407066 8.9615 0.530875 9.20003C0.630304 9.39076 0.779448 9.52652 0.987389 9.59153C0.973048 9.56763 0.861668 9.33818 0.85163 9.23636C0.825816 8.97106 0.948669 8.81809 1.18577 8.72726C1.44868 8.6264 1.71638 8.53605 1.98216 8.4414L3.00992 8.07619C3.41767 7.93183 3.83355 7.78699 4.24083 7.64215C4.2394 7.6278 4.2394 7.6278 4.23892 7.60104C4.23749 7.57666 4.2351 7.5518 4.2351 7.52742V5.78884H4.23462Z" fill="#352CAA"/>
<mask id="mask0" mask-type="alpha" maskUnits="userSpaceOnUse" x="31" y="4" width="1" height="2">
<path d="M31.014 4.37561H31.8501V5.21216H31.014V4.37561Z" fill="white"/>
</mask>
<g mask="url(#mask0)">
<path fill-rule="evenodd" clip-rule="evenodd" d="M31.8018 4.79388C31.8047 4.59694 31.6393 4.41911 31.4232 4.42389C31.2157 4.42867 31.0618 4.60267 31.0618 4.79388C31.0618 4.99657 31.2301 5.16626 31.4356 5.16435C31.6374 5.16244 31.8051 4.99322 31.8018 4.79388ZM31.4308 4.37561C31.6617 4.37561 31.8501 4.56347 31.8501 4.7934C31.8501 5.02477 31.6622 5.21263 31.4313 5.21216C31.2 5.21168 31.0131 5.02238 31.014 4.79054C31.0145 4.56443 31.2033 4.37561 31.4308 4.37561Z" fill="black"/>
</g>
<path fill-rule="evenodd" clip-rule="evenodd" d="M11.7898 4.81544C11.7898 4.5444 11.6139 4.36323 11.3376 4.36323H10.7597L10.634 5.40389H11.2071C11.5489 5.40389 11.7903 5.16249 11.7903 4.81592L11.7898 4.81544ZM12.7048 4.7098C12.7048 5.54443 12.0614 6.1324 11.1617 6.1324H10.5432L10.3931 7.35376H9.51349L9.97048 3.63472H11.5188C12.2526 3.63472 12.7043 4.06208 12.7043 4.71028L12.7048 4.7098ZM14.6441 5.86136C14.6441 5.5191 14.4878 5.29251 14.2369 5.29251C13.9151 5.29251 13.6685 5.64004 13.6685 6.10755C13.6685 6.44886 13.8195 6.67066 14.0657 6.67066C14.3922 6.67066 14.6441 6.33365 14.6441 5.86136ZM15.6595 4.61467L15.3177 7.35376H14.6188L14.5939 6.96178C14.3827 7.23808 14.0858 7.40443 13.6991 7.40443C13.1255 7.40443 12.7794 6.93118 12.7794 6.22275C12.7794 5.25331 13.3167 4.564 14.0509 4.564C14.4276 4.564 14.6838 4.75043 14.8201 5.0621L14.9553 4.61467H15.6595ZM18.6787 4.61419L18.3723 7.13243C18.2719 7.96181 17.6184 8.5101 16.7388 8.5101C16.4267 8.5101 16.1055 8.45991 15.9243 8.37912L15.8841 7.67069C16.05 7.7357 16.3416 7.78111 16.6179 7.78111C17.1208 7.78111 17.4879 7.51963 17.5376 7.12765L17.5577 6.98185C17.3115 7.26867 16.9898 7.40443 16.6934 7.40443C16.2106 7.40443 15.9697 7.12239 15.9697 6.58987C15.9697 6.51435 15.9745 6.424 15.9845 6.32839L16.1958 4.61467H17.05L16.854 6.20315C16.8493 6.24809 16.8493 6.28824 16.8493 6.32361C16.8493 6.55498 16.9449 6.67066 17.1356 6.67066C17.4023 6.67066 17.6031 6.42926 17.6485 6.06213L17.8292 4.61467H18.6787V4.61419ZM22.3719 7.03731L22.2763 7.35376H20.2504L20.7079 3.63424H21.0898L20.6725 7.03731H22.3719ZM23.2452 3.43347H23.6172L23.5316 4.13665H23.1597L23.2452 3.43347ZM23.0947 4.69498H23.4561L23.13 7.35376H22.7677L23.0947 4.69498ZM26.2453 4.69546C26.2453 5.70027 25.6325 6.76627 24.7176 7.35376H24.3906L23.9642 4.69546H24.3514L24.6726 7.03778C25.4069 6.51004 25.884 5.58506 25.884 4.69546H26.2458H26.2453ZM28.4457 4.64479L28.4008 5.01143H28.1747C27.5762 5.01143 27.1292 5.42349 27.0489 6.0521L26.8878 7.35376H26.5259L26.8577 4.69498H27.1646L27.1192 5.369C27.3505 4.91583 27.7473 4.64479 28.2703 4.64479H28.4457ZM28.8525 5.83125H30.3501C30.3554 5.78058 30.3554 5.74042 30.3554 5.69501C30.3554 5.23754 30.1341 4.9512 29.7579 4.9512C29.2999 4.9512 28.9581 5.29299 28.8525 5.83077V5.83125ZM30.7072 5.72035C30.7072 5.79587 30.7024 5.88144 30.6924 5.96175L30.6771 6.09225H28.8224C28.8176 6.12715 28.8176 6.16252 28.8176 6.19742C28.8176 6.78061 29.1039 7.09754 29.667 7.09754C29.9586 7.09754 30.2502 7.03205 30.4763 6.92688L30.3807 7.23282C30.1494 7.33894 29.853 7.40443 29.5413 7.40443C28.8276 7.40443 28.4404 6.98185 28.4404 6.23805C28.4404 5.28343 29.0236 4.64479 29.8124 4.64479C30.3755 4.64479 30.7072 5.06688 30.7072 5.72035ZM31.3263 4.80349H31.3435C31.3827 4.80349 31.4219 4.80349 31.4616 4.80158C31.4754 4.80158 31.4893 4.79919 31.5031 4.79537C31.529 4.78724 31.5438 4.76812 31.5481 4.74135C31.5519 4.71554 31.5423 4.69355 31.5204 4.67873C31.5065 4.66917 31.4912 4.66534 31.4745 4.66534L31.3306 4.66391L31.3263 4.66439V4.80301V4.80349ZM31.3263 4.8513V5.03772H31.2708V4.61706H31.2756C31.3392 4.61706 31.4028 4.61706 31.4659 4.61802C31.485 4.61802 31.5031 4.61993 31.5218 4.6228C31.5634 4.63045 31.5897 4.65626 31.6011 4.69689C31.6126 4.73848 31.6059 4.77672 31.5758 4.80971C31.5586 4.82739 31.5366 4.83552 31.5127 4.84173C31.5055 4.84365 31.4984 4.84508 31.4902 4.84795L31.4926 4.84891C31.5223 4.86325 31.5428 4.88715 31.5605 4.91344L31.6356 5.02912C31.6365 5.03151 31.6375 5.0339 31.6394 5.03629L31.6346 5.03725H31.5739C31.5701 5.03773 31.5691 5.03534 31.5677 5.03247C31.5457 4.99901 31.5247 4.96459 31.5017 4.93113C31.4888 4.912 31.4749 4.89336 31.4596 4.87567C31.4463 4.86038 31.4281 4.85177 31.4071 4.85177C31.3812 4.85177 31.3554 4.85177 31.3301 4.85082H31.3263V4.8513Z" fill="black"/>
</svg>

<svg width="32" height="11" fill="none" xmlns="http://www.w3.org/2000/svg"><path fill-rule="evenodd" clip-rule="evenodd" d="M4.235 8.059c0-.135.004-.283.005-.418-.003-.004-.823.29-1.23.435l-1.028.365c-.266.094-.534.184-.797.286-.237.09-.36.243-.333.51.01.1.122.337.135.354.014.008.028.019.043.027.17.08.345.146.521.21.346.127.69.255 1.037.373.273.092.545.186.823.261a.668.668 0 00.295.031.556.556 0 00.457-.362c.055-.14.076-.286.077-.434.001-.546-.003-1.092-.005-1.638z" fill="#0AD0DA"/><path fill-rule="evenodd" clip-rule="evenodd" d="M6.957 4.041c-.007-.945-.002-1.89-.005-2.834A.736.736 0 006.84.785a1.423 1.423 0 00-.169-.176A.596.596 0 006.296.5a1.18 1.18 0 00-.387.082l-.957.344c-.366.13-.733.258-1.1.387l-1.477.525c-.355.127-.71.254-1.061.39a3.501 3.501 0 00-.29.124.302.302 0 00-.06.039c-.32.24-.194.668-.052.779.165.129.44.143.632.213l.704.258c.383.138.767.275 1.148.416.125.046.245.098.357.169a.91.91 0 01.423.578l.019.065c.003 0 .006.016.01.04l.026.257.005.03-.002.477v1.854c0 .025.003.05.005.074l-.008.041c.003.005.046-.012.067-.018.283-.086.562-.182.841-.28a14.53 14.53 0 001.175-.457c.148-.067.3-.132.399-.273.033-.047.11-.178.119-.194.108-.198.125-.415.13-.633.006-.235.005-.47.004-.705l-.009-1.04z" fill="#9A6BFC"/><path fill-rule="evenodd" clip-rule="evenodd" d="M4.235 5.789v-.593l-.002-.03c-.001 0-.02-.17-.028-.256-.004-.024-.007-.04-.01-.04l-.02-.066a.905.905 0 00-.422-.577 1.92 1.92 0 00-.357-.17c-.381-.141-.765-.277-1.147-.416-.235-.085-.47-.17-.705-.257-.19-.07-.202-.04-.552-.261C.643 2.9.866 2.488.964 2.392a.264.264 0 01.06-.039h-.001a.903.903 0 00-.561.573 1.799 1.799 0 00-.086.583v1.93c0 1-.002 1.999 0 3 .001.262.031.522.155.761.1.19.248.327.456.392-.014-.024-.125-.254-.135-.356-.026-.265.097-.418.334-.509.263-.1.53-.191.796-.286l1.028-.365c.408-.144.824-.289 1.23-.434l-.001-.041c-.002-.024-.004-.05-.004-.074V5.79z" fill="#352CAA"/><mask id="a" maskUnits="userSpaceOnUse" x="31" y="4" width="1" height="2"><path d="M31.014 4.376h.836v.836h-.836v-.836z" fill="#fff"/></mask><g mask="url(#a)"><path fill-rule="evenodd" clip-rule="evenodd" d="M31.802 4.794a.37.37 0 10-.74 0 .37.37 0 00.74 0zm-.371-.418a.419.419 0 11-.417.415.42.42 0 01.417-.415z" fill="#000"/></g><path fill-rule="evenodd" clip-rule="evenodd" d="M11.79 4.815c0-.27-.176-.452-.452-.452h-.578l-.126 1.04h.573c.342 0 .583-.24.583-.587zm.915-.105c0 .834-.644 1.422-1.543 1.422h-.619l-.15 1.222h-.88l.457-3.72h1.549c.734 0 1.185.428 1.185 1.076zm1.94 1.151c0-.342-.157-.568-.408-.568-.322 0-.569.347-.569.815 0 .34.152.563.398.563.326 0 .578-.337.578-.81zm1.014-1.246l-.341 2.739h-.7l-.024-.392a1.081 1.081 0 01-.895.442c-.573 0-.92-.473-.92-1.181 0-.97.538-1.659 1.272-1.659.377 0 .633.186.77.498l.134-.447h.704zm3.02 0l-.307 2.517c-.1.83-.754 1.378-1.633 1.378-.312 0-.634-.05-.815-.13l-.04-.71c.166.066.458.111.734.111.503 0 .87-.261.92-.653l.02-.146a1.151 1.151 0 01-.865.422c-.482 0-.723-.282-.723-.814 0-.076.005-.166.014-.262l.212-1.713h.854l-.196 1.588c-.005.045-.005.085-.005.12 0 .232.096.348.287.348.266 0 .467-.242.512-.609l.181-1.447h.85zm3.693 2.422l-.096.317H20.25l.458-3.72h.382l-.418 3.403h1.7zm.873-3.604h.372l-.085.704h-.372l.085-.704zm-.15 1.262h.361l-.326 2.659h-.362l.327-2.659zm3.15 0c0 1.005-.613 2.071-1.527 2.659h-.327l-.427-2.659h.387l.322 2.343c.734-.528 1.211-1.453 1.211-2.343h.362zm2.2-.05l-.044.366h-.226c-.599 0-1.046.412-1.126 1.041l-.161 1.302h-.362l.332-2.659h.307l-.046.674c.232-.453.628-.724 1.151-.724h.176zm.407 1.186h1.498c.005-.05.005-.09.005-.136 0-.457-.22-.744-.597-.744-.458 0-.8.342-.905.88zm1.855-.11c0 .075-.005.16-.015.24l-.015.131h-1.855c-.004.035-.004.07-.004.105 0 .584.286.9.849.9.292 0 .583-.065.81-.17l-.096.306a2.055 2.055 0 01-.84.171c-.713 0-1.1-.422-1.1-1.166 0-.955.583-1.593 1.371-1.593.563 0 .895.422.895 1.075zm.62-.918h.016l.119-.001a.156.156 0 00.041-.007.063.063 0 00.045-.054.061.061 0 00-.028-.062.078.078 0 00-.046-.014l-.143-.001h-.005v.139zm0 .048v.187h-.056v-.42h.195c.019 0 .037.002.056.005a.096.096 0 01.08.074.113.113 0 01-.026.113.128.128 0 01-.063.032l-.023.006h.003c.03.015.05.04.068.065l.075.116c0 .003.002.005.003.007l-.004.001h-.061c-.004 0-.005-.002-.006-.005-.022-.033-.043-.067-.066-.1a.581.581 0 00-.042-.056.068.068 0 00-.053-.024l-.077-.001h-.004z" fill="#000"/></svg>
